img/checkmark.svg

<svg fill="none" height="16" viewBox="0 0 16 16" width="16" xmlns="http://www.w3.org/2000/svg"><path d="m8 1c-1.38447 0-2.73784.41054-3.88899 1.17971-1.15114.76917-2.04835 1.86242-2.57816 3.14151-.52982 1.27908-.66844 2.68655-.39834 4.04441.27009 1.35787.93678 2.60517 1.91575 3.58407.97896.979 2.22624 1.6457 3.58411 1.9158s2.76533.1315 4.04443-.3983c1.2791-.5299 2.3723-1.4271 3.1415-2.5782.7692-1.1512 1.1797-2.50453 1.1797-3.889 0-1.85652-.7375-3.63699-2.0503-4.94975-1.3127-1.31275-3.09318-2.05025-4.9497-2.05025zm-1 9.795-2.5-2.5.795-.795 1.705 1.705 3.705-3.705.798.793z" fill="#008699"/></svg>

<svg width="16" height="16" viewBox="0 0 16 16" fill="none" xmlns="http://www.w3.org/2000/svg">
<path d="M8 1C6.61553 1 5.26216 1.41054 4.11101 2.17971C2.95987 2.94888 2.06266 4.04213 1.53285 5.32122C1.00303 6.6003 0.86441 8.00777 1.13451 9.36563C1.4046 10.7235 2.07129 11.9708 3.05026 12.9497C4.02922 13.9287 5.2765 14.5954 6.63437 14.8655C7.99224 15.1356 9.3997 14.997 10.6788 14.4672C11.9579 13.9373 13.0511 13.0401 13.8203 11.889C14.5895 10.7378 15 9.38447 15 8C15 6.14348 14.2625 4.36301 12.9497 3.05025C11.637 1.7375 9.85652 1 8 1ZM7 10.795L4.5 8.295L5.295 7.5L7 9.205L10.705 5.5L11.503 6.293L7 10.795Z" fill="#008699"/>
</svg>
